X:810
T:Devil In The Kitchen, The
C:Joe Buchanan's Scottish Tome - Page 217.1
I:217 1
Z:Carl Allison
R:Strathspey
U:T=!tenuto!
R:Reel
L:1/8
M:4/4
K:D
a | "A"(Te>TA) ((3AAA) (Te>TA) "D"((3fed) | "A"(Te>TA) ((3AAA) "G"g2 "D"(f<a) | "A"Te>TA ((3AAA) (Te>TA) "D"((3fed) | "G"(TB>TG) ((3dcB) "G"g2 "D"(f<a) | 
"A"(Te>TA) ((3AAA) (Te>TA) "D"((3fed) | "A"(Te>TA) ((3AAA) "G"g2 "D"(f<a) | "A"Te>TA ((3AAA) (Te>TA) "D"((3fed) | "G"(TB>TG) ((3dcB) "G"g2 "D"(f<a) :| 
"A"(Ta>TA) ((3AAA) (Te>TA) ((3AAA) | "A"(Ta>TA) ((3AAA) "G"g2 "D"(f<a) | "A"Ta>TA ((3AAA) (Te>TA) "D"((3fed) | "G"(TB>TG) ((3dcB) "G"g2 "D"(f<a) | 
"A"(Ta>TA) ((3AAA) (Te>TA) ((3AAA) | "A"(Ta>TA) ((3AAA) "G"g2 "D"(f<a) | "A"((3agf) (Tg>Te) "D"((3faf) "A"(TeTc) | "G"T(BTc) T(dTe) "D"f2 (f<a) :| 

